usr/share/icons/biglinux-icons-material/22/actions/view-financial-account-investment-closed.svg

<svg version="1.1" viewBox="0 0 22 22" xmlns="http://www.w3.org/2000/svg">
    <style id="current-color-scheme" type="text/css">.ColorScheme-NegativeText { color: #da4453; }.ColorScheme-Text { color: #363636; }</style>
    <path class="ColorScheme-Text" d="m5.1210938 3 1 1h9.8789062v1h1v1h1v2h1v-5h-13.878906zm5.8789062 2a3 3 0 0 0-2.4726562 1.40625l0.7070312 0.7070312a2 2 0 0 1 1.714844-1.1132812 2 2 0 0 1 0.001953 0 2 2 0 0 1 0.048828 0 2 2 0 0 1 2 2h1a3 3 0 0 0-3-3zm-8 0.1210938v2.8789062h1v-1.8789062l-1-1zm0 3.8789062v5h1v-2h1v-1h1v-1h1.8789062l-1-1h-3.8789062zm8.121094 0 1 1h3.878906v1h1v1h1v2h1v-5h-7.878906zm-1.714844 2.527344a3 3 0 0 0-1.40625 2.472656h1a2 2 0 0 1 1.121094-1.757812l-0.714844-0.714844zm-6.40625 3.472656v4h1v-1h1v-1h1v-1h7.878906l-1-1h-9.878906zm14.121094 0 1.878906 1.878906v-1.878906h-1.878906zm-6.121094 2a3 3 0 0 0-2.8007812 2h1.0742187a2 2 0 0 1 1.6757815-1 2 2 0 0 1 0.001953 0 2 2 0 0 1 0.048828 0 2 2 0 0 1 1.722656 1h1.101563a3 3 0 0 0-2.824219-2z" fill="currentColor"/>
    <path class="ColorScheme-NegativeText" d="M 3.7070312,2.9999999 3,3.7070311 18.292969,19 19,18.292969 Z" fill="currentColor"/>
</svg>

<svg xmlns="http://www.w3.org/2000/svg" viewBox="0 0 22 22"><path fill="currentColor" d="m5.121 3 1 1H16v1h1v1h1v2h1V3H5.121zM11 5a3 3 0 0 0-2.473 1.406l.707.707A2 2 0 0 1 10.95 6a2 2 0 0 1 .002 0A2 2 0 0 1 11 6a2 2 0 0 1 2 2h1a3 3 0 0 0-3-3zm-8 .121V8h1V6.121l-1-1zM3 9v5h1v-2h1v-1h1v-1h1.879l-1-1H3zm8.121 0 1 1H16v1h1v1h1v2h1V9h-7.879zm-1.715 2.527A3 3 0 0 0 8 14h1a2 2 0 0 1 1.121-1.758l-.715-.715zM3 15v4h1v-1h1v-1h1v-1h7.879l-1-1H3zm14.121 0L19 16.879V15h-1.879zM11 17a3 3 0 0 0-2.8 2h1.073a2 2 0 0 1 1.676-1 2 2 0 0 1 .002 0A2 2 0 0 1 11 18a2 2 0 0 1 1.723 1h1.101A3 3 0 0 0 11 17z" style="color:#dedede"/><path fill="currentColor" d="M3.707 3 3 3.707 18.293 19l.707-.707Z" style="color:#da4453"/></svg>
